X:556
T:Ormen Lange
C:anon.
O:Faeroe Islands
Z:Transcribed by Frank Nordberg - http://www.musicaviva.com
F:http://abc.musicaviva.com/tunes/faeroe/ormen-lange.abc
M:2/4
L:1/16
K:G
"G"G2GG "Em"G2G2|"G"G2F2 "C"E2D2|"G"G2GG G2"D"A2|"G"B6 z2|
"G"B2B2 "Em"B2c2|"G"B2A2 "D"A2B2|"G"B2B2 "C"c2B2|"G"(B4"D"A4)||
"D"A2B2 "C"c4|"G"B2B2 B2BB|"C"G2GG "A7"A2A2|"D7"A6 z2|
"D7"A2A2 A2A2|"D7"G2F2 E2D2|"D7"D4 E2F2|"G"G4 z4|]
W:
W:
W:  From Musica Viva - http://www.musicaviva.com
W:  the Internet center for free sheet music downloads.
